tools/download-figma-icons/icons/outlined-large/water-drops.svg

<svg width="64" height="64" viewBox="0 0 64 64" fill="none" xmlns="http://www.w3.org/2000/svg">
<path fill-rule="evenodd" clip-rule="evenodd" d="M47.4208 3.29799C42.9458 9.61597 40.1828 14.909 40.1828 17.182C40.1828 21.1729 43.4298 24.4199 47.4208 24.4199C51.4118 24.4199 54.6587 21.1729 54.6587 17.182C54.6587 14.909 51.8957 9.61497 47.4208 3.29799ZM47.4208 27.4199C41.7748 27.4199 37.1828 22.8269 37.1828 17.182C37.1828 13.059 42.2778 5.32498 45.3148 1.083C45.7998 0.404999 46.5878 0 47.4208 0C48.2538 0 49.0418 0.404999 49.5258 1.083C52.5637 5.32498 57.6587 13.059 57.6587 17.182C57.6587 22.8269 53.0667 27.4199 47.4208 27.4199ZM24.4999 19.2871C24.4049 19.2871 24.2269 19.3141 24.0979 19.4951C15.27 31.8271 9.99997 41.9221 9.99997 46.5001C9.99997 54.495 16.505 61 24.4999 61C32.4949 61 38.9999 54.495 38.9999 46.5001C38.9999 41.9221 33.7299 31.8261 24.9029 19.4951C24.7739 19.3141 24.5949 19.2871 24.4999 19.2871ZM24.4999 64C14.851 64 6.99998 56.149 6.99998 46.5001C6.99998 39.3011 16.184 25.3961 21.6579 17.7492C22.3119 16.8342 23.3749 16.2872 24.4999 16.2872C25.6249 16.2872 26.6879 16.8342 27.3429 17.7492C32.8169 25.3961 41.9999 39.3011 41.9999 46.5001C41.9999 56.149 34.1489 64 24.4999 64ZM13 46.5C13 52.8409 18.1589 57.9999 24.4999 57.9999C25.3289 57.9999 25.9999 57.3279 25.9999 56.4999C25.9999 55.6719 25.3289 54.9999 24.4999 54.9999C19.8129 54.9999 16 51.187 16 46.5C16 45.672 15.329 45 14.5 45C13.671 45 13 45.672 13 46.5Z" fill="black"/>
</svg>

<svg width="64" height="64" viewBox="0 0 64 64" fill="none" xmlns="http://www.w3.org/2000/svg"><path fill-rule="evenodd" clip-rule="evenodd" d="M47.42 3.298c-4.474 6.318-7.237 11.611-7.237 13.884 0 3.99 3.247 7.238 7.238 7.238 3.99 0 7.238-3.247 7.238-7.238 0-2.273-2.763-7.567-7.238-13.884Zm0 24.122c-5.645 0-10.237-4.593-10.237-10.238 0-4.123 5.095-11.857 8.132-16.099A2.596 2.596 0 0 1 47.42 0c.833 0 1.62.405 2.105 1.083 3.038 4.242 8.133 11.976 8.133 16.099 0 5.645-4.592 10.238-10.238 10.238ZM24.5 19.287a.483.483 0 0 0-.402.208C15.27 31.827 10 41.922 10 46.5 10 54.495 16.505 61 24.5 61S39 54.495 39 46.5c0-4.578-5.27-14.674-14.097-27.005a.485.485 0 0 0-.403-.208ZM24.5 64C14.85 64 7 56.149 7 46.5c0-7.199 9.184-21.104 14.658-28.75a3.501 3.501 0 0 1 2.842-1.463c1.125 0 2.188.547 2.843 1.462C32.817 25.396 42 39.301 42 46.5 42 56.15 34.149 64 24.5 64ZM13 46.5C13 52.84 18.159 58 24.5 58a1.5 1.5 0 1 0 0-3c-4.687 0-8.5-3.813-8.5-8.5a1.5 1.5 0 1 0-3 0Z" fill="currentColor"/></svg>
